src/assets/selectIconsSpells/guarigione_4.svg

<svg xmlns="http://www.w3.org/2000/svg" viewBox="0 0 512 512"><path d="M0 0h512v512H0z"/><path fill="#fff" d="M250.9 18.9c-23.9 2.99-45.3 30.65-45.3 66.99 0 19.91 6.8 37.41 16.8 49.61l12.2 14.5-18.7 3.5c-13 2.5-22.6 9.5-30.7 20.8-8.5 11.5-14.8 26.9-19.1 45.2-8 32.7-9.9 72.7-9.9 108.2h43.6l11.7 160.5c30.4 7 63.1 6.5 92.3 0l10.7-160.5H356c0-35.7-.5-76.4-7.8-109.7-3.9-17.9-10-33.7-18.2-45.1-8.2-11.1-18.5-17.8-33.3-20.1l-18.9-3 11.9-14.9c9.9-12.1 16.4-29.6 16.4-49.01 0-38.54-24-66.99-50.3-66.99h-4.9zm145 3.59v41.85h-41.8v50.16h41.8v41.6h49.9v-41.6h41.9V64.34h-41.9V22.49h-49.9zM52.92 62.89v30.58H22.39v36.63h30.53v30.4h36.4v-30.4h30.58V93.47H89.32V62.89h-36.4zM92.63 199.7v21.8H70.75v26.3h21.88v21.9h26.27v-21.9h21.8v-26.3h-21.8v-21.8H92.63zm355.07 62.4v21.8h-21.9v26.3h21.9v21.9H474v-21.9h21.8v-26.3H474v-21.8h-26.3zm-307.5 99.4v15h-15v18h15v15h18.1v-15h15v-18h-15v-15h-18.1zm230 45.8v15h-15v18h15v15h18v-15h15v-18h-15v-15h-18zM49.32 431.8v15h-15v18h15v15h18.01v-15h15v-18h-15v-15H49.32z"/></svg>

<?xml version="1.0" encoding="UTF-8" standalone="no"?>
<!DOCTYPE svg PUBLIC "-//W3C//DTD SVG 1.1//EN" "http://www.w3.org/Graphics/SVG/1.1/DTD/svg11.dtd">
<svg width="100%" height="100%" viewBox="0 0 512 512" version="1.1" xmlns="http://www.w3.org/2000/svg" xmlns:xlink="http://www.w3.org/1999/xlink" xml:space="preserve" xmlns:serif="http://www.serif.com/" style="fill-rule:evenodd;clip-rule:evenodd;stroke-linejoin:round;stroke-miterlimit:2;">
    <rect x="0" y="0" width="512" height="512" style="fill-rule:nonzero;"/>
    <path d="M395.9,22.49L395.9,64.34L354.1,64.34L354.1,114.5L395.9,114.5L395.9,156.1L445.8,156.1L445.8,114.5L487.7,114.5L487.7,64.34L445.8,64.34L445.8,22.49L395.9,22.49ZM52.92,62.89L52.92,93.47L22.39,93.47L22.39,130.1L52.92,130.1L52.92,160.5L89.32,160.5L89.32,130.1L119.9,130.1L119.9,93.47L89.32,93.47L89.32,62.89L52.92,62.89ZM92.63,199.7L92.63,221.5L70.75,221.5L70.75,247.8L92.63,247.8L92.63,269.7L118.9,269.7L118.9,247.8L140.7,247.8L140.7,221.5L118.9,221.5L118.9,199.7L92.63,199.7ZM447.7,262.1L447.7,283.9L425.8,283.9L425.8,310.2L447.7,310.2L447.7,332.1L474,332.1L474,310.2L495.8,310.2L495.8,283.9L474,283.9L474,262.1L447.7,262.1ZM140.2,361.5L140.2,376.5L125.2,376.5L125.2,394.5L140.2,394.5L140.2,409.5L158.3,409.5L158.3,394.5L173.3,394.5L173.3,376.5L158.3,376.5L158.3,361.5L140.2,361.5ZM370.2,407.3L370.2,422.3L355.2,422.3L355.2,440.3L370.2,440.3L370.2,455.3L388.2,455.3L388.2,440.3L403.2,440.3L403.2,422.3L388.2,422.3L388.2,407.3L370.2,407.3ZM49.32,431.8L49.32,446.8L34.32,446.8L34.32,464.8L49.32,464.8L49.32,479.8L67.33,479.8L67.33,464.8L82.33,464.8L82.33,446.8L67.33,446.8L67.33,431.8L49.32,431.8Z" style="fill:rgb(132,222,197);fill-rule:nonzero;"/>
    <path d="M250.9,18.9L255.8,18.9C282.1,18.9 306.1,47.35 306.1,85.89C306.1,105.3 299.6,122.8 289.7,134.9L277.8,149.8L296.7,152.8C311.5,155.1 321.8,161.8 330,172.9C338.2,184.3 344.3,200.1 348.2,218C355.5,251.3 356,292 356,327.7L314.5,327.7L303.8,488.2C274.6,494.7 241.9,495.2 211.5,488.2L199.8,327.7L156.2,327.7C156.2,292.2 158.1,252.2 166.1,219.5C170.4,201.2 176.7,185.8 185.2,174.3C193.3,163 202.9,156 215.9,153.5L234.6,150L222.4,135.5C212.4,123.3 205.6,105.8 205.6,85.89C205.6,49.55 227,21.89 250.9,18.9Z" style="fill:rgb(208,208,208);"/>
</svg>
